src/images_karasa_jaga_svg/cmd/sc_imagebutton.svg

<svg height="16" viewBox="0 0 16 16" width="16" xmlns="http://www.w3.org/2000/svg" xmlns:xlink="http://www.w3.org/1999/xlink"><linearGradient id="a" gradientTransform="matrix(.93648842 0 0 .95151202 3.842502 -2.620516)" gradientUnits="userSpaceOnUse" x1="72.618614" x2="73.819366" y1="101.35709" y2="47.875233"><stop offset="0" stop-color="#b3b3b7"/><stop offset="1" stop-color="#e5e5e5" stop-opacity=".996078"/></linearGradient><linearGradient id="b" gradientUnits="userSpaceOnUse" x1="85.717094" x2="-13.947494" xlink:href="#c" y1="92.189766" y2="1.963599"/><linearGradient id="c"><stop offset="0" stop-color="#fff"/><stop offset=".42597079" stop-color="#fff"/><stop offset=".5892781" stop-color="#f1f1f1"/><stop offset=".80219781" stop-color="#eaeaea"/><stop offset="1" stop-color="#dfdfdf"/></linearGradient><linearGradient id="d" gradientUnits="userSpaceOnUse" x1="-5.896006" x2="55.588886" xlink:href="#e" y1="-44.78648" y2="116.05923"/><linearGradient id="e"><stop offset="0" stop-color="#b4b4b6"/><stop offset=".5" stop-color="#9c9ca1"/><stop offset="1" stop-color="#cdcdd1"/></linearGradient><linearGradient id="f" gradientTransform="matrix(-.96618587 0 1.0040524 2.5140531 123.62358 -18.976126)" gradientUnits="userSpaceOnUse" x1="110.45749" x2="63.741646" xlink:href="#g" y1="-4.576576" y2="41.850632"/><linearGradient id="g"><stop offset="0" stop-color="#fff"/><stop offset="1" stop-color="#fff" stop-opacity="0"/></linearGradient><linearGradient id="h" gradientTransform="matrix(.13460875 0 0 .21715855 -331.2333 -121.84037)" gradientUnits="userSpaceOnUse" x1="399.77466" x2="399.77466" xlink:href="#e" y1="1164.6696" y2="549.06134"/><linearGradient id="i" gradientTransform="matrix(1.0691031 0 0 1.4254709 -324.4226 -27.230125)" gradientUnits="userSpaceOnUse" x1="15.999998" x2="98.714287" xlink:href="#c" y1="106.75" y2="36.035713"/><linearGradient id="j" gradientTransform="matrix(1.3621027 .55162531 -.6718293 1.6589168 -340.47719 -54.764149)" gradientUnits="userSpaceOnUse" x1="144.78481" x2="63.089115" xlink:href="#g" y1="-56.087624" y2="62.056267"/><linearGradient id="k" gradientTransform="matrix(.1300602 0 0 .2090041 -152.94107 -186.85256)" gradientUnits="userSpaceOnUse" x1="399.77466" x2="399.77466" xlink:href="#e" y1="1164.6696" y2="549.06134"/><linearGradient id="l" gradientTransform="matrix(1.1666667 0 0 1.5555557 -154.66666 -107.55555)" gradientUnits="userSpaceOnUse" x1="9.571428" x2="112" xlink:href="#c" y1="142.42857" y2="27.999998"/><linearGradient id="m" gradientTransform="matrix(.87491682 0 -.90920639 2.2765675 -107.73373 -95.084958)" gradientUnits="userSpaceOnUse" x1="101.47155" x2="79.994766" xlink:href="#g" y1="-3.371918" y2="39.929062"/><linearGradient id="n" gradientTransform="matrix(1.0688537 0 0 1.0312833 -4.373233 -2.003145)" gradientUnits="userSpaceOnUse" x1="69.8172" x2="69.8172" y1="17.4561" y2="104.7276"><stop offset="0" stop-color="#fff"/><stop offset="1" stop-color="#bbb"/></linearGradient><g transform="scale(.125)"><path d="m17.481631 8.0000077a6.0992777 6.2164705 0 0 0 -.675832.040776h-2.063486c-3.500339 0-6.5451769 1.1771654-9.2696813 3.1689663-2.7245041 1.991792-5.4726318 5.27058-5.4726318 9.908357v85.763783c0 4.63774 2.7481265 7.91653 5.4726318 9.90834 2.7245055 1.99181 5.7693423 3.16895 9.2696813 3.16895h2.107474a6.0992777 6.2164705 0 0 0 .631844.04082h44.412896.337914 48.285939a6.0992777 6.2164705 0 0 0 .67581-.0407h2.0635c3.50034 0 6.54517-1.17714 9.26968-3.16892 2.7245-1.99186 5.47263-5.27064 5.47263-9.9084v-85.763888c0-4.637774-2.74813-7.916563-5.47263-9.908363-2.72451-1.9917984-5.76934-3.1689634-9.26968-3.1689634h-2.10747a6.0992777 6.2164705 0 0 0 -.63184-.0407656h-48.285939-.337914z" fill="#8b8b91"/><path d="m19.009224 16.000004v.0388h-2.648505c-3.594543 0-8.360719 2.950821-8.360719 6.616482v82.689394c0 3.66569 4.766176 6.61651 8.360719 6.61651h2.648505v.03881h42.954092.327406 46.700058v-.0388h2.64849c3.59454 0 8.36073-2.95084 8.36073-6.61653v-82.689389c0-3.665663-4.76619-6.616481-8.36073-6.616481h-2.64849v-.0388h-46.700058-.327406z" fill="url(#a)"/><g transform="matrix(.42161219 0 0 .39743971 188.696478 30.453232)"><rect fill="url(#h)" height="133.51352" rx="66.75676" width="132.994" x="-322.49701" y="-2.50676"/><g fill-rule="evenodd"><rect fill="url(#i)" height="102.6339" rx="51.316948" width="102.6339" x="-307.31696" y="12.683053"/><path d="m-226.59012 22.247707c-23.17711 2.416084-52.8327 22.059917-69.64443 56.557461l49.45556 26.002112c-.29587-24.197691 15.09613-58.070534 32.30219-71.018987-3.07661-4.230421-6.76321-7.972896-10.96785-11.082399z" fill="url(#j)"/></g></g><g transform="matrix(.42161219 0 0 .39743971 82.256295 68.477187)"><rect fill="url(#k)" height="121.10687" rx="2.857143" ry="2.769231" width="110.0517" x="-138.17508" y="-71.651588"/><g fill-rule="evenodd"><rect fill="url(#l)" height="80.515358" rx="1.750001" width="75.899132" x="-119.20029" y="-51.522751"/><path d="m-66.160701-56.805155c-17.919303 21.463665-40.168729 42.824316-56.878269 70.995435h38.687734c12.105134-26.970449 26.715244-49.479946 41.047738-70.995435z" fill="url(#m)"/></g></g><g transform="matrix(0 .39743971 -.42161219 0 105.271522 52.146153)"><path d="m69.651329 78.391236-116.121893-18.739458 74.289793-91.19478z" style="opacity:.891386;stroke-width:13.228005;stroke-linecap:round;stroke-linejoin:round;stroke-dashoffset:1.0878;fill:url(#b);stroke:url(#d)" transform="matrix(.92177293 .35196336 -.35235698 .92060315 77.614605 25.355074)"/><path d="m73.860519 34.20818c19.788601 23.702699 18.178815 9.394122 36.631451 40.503977l-31.109187 22.887089c-13.367907-29.783936-3.073859-32.266966-18.901475-56.026896z" fill="url(#f)" fill-rule="evenodd"/></g><path d="m19.01003 15.999997v.03828h-2.649172c-3.594546-.000003-8.360858 2.951-8.360858 6.616725v82.689988c0 3.66573 4.766312 6.61671 8.360858 6.61671h2.649172v.0383h42.954558.327754 46.699718v-.0383h2.64708c3.59453 0 8.36086-2.95097 8.36086-6.61671v-82.68999c0-3.665724-4.76633-6.616726-8.36086-6.616726h-2.64708v-.038274h-46.699718-.327754zm4.745637 8.000003h38.184383.290175 41.514105v.03424h2.35481c3.19537 0 5.80844 1.081751 5.81247 4.289256l.08839 70.385604c.004 3.20753-2.3671 5.2909-5.56247 5.2909h-2.35481v.0343h-41.514107-.290175-38.184383v-.0343h-2.354819c-3.195379 0-5.735208-2.58337-5.739236-5.7909l-.08839-70.3856c-.004-3.207504 2.313495-4.142974 5.489236-3.789256h2.354819z" fill="url(#n)"/></g></svg>

<?xml version="1.0" encoding="UTF-8" standalone="no"?>
<!-- Created with Inkscape (http://www.inkscape.org/) -->

<svg
   xmlns:dc="http://purl.org/dc/elements/1.1/"
   xmlns:cc="http://creativecommons.org/ns#"
   xmlns:rdf="http://www.w3.org/1999/02/22-rdf-syntax-ns#"
   xmlns:svg="http://www.w3.org/2000/svg"
   xmlns="http://www.w3.org/2000/svg"
   xmlns:xlink="http://www.w3.org/1999/xlink"
   xmlns:sodipodi="http://sodipodi.sourceforge.net/DTD/sodipodi-0.dtd"
   xmlns:inkscape="http://www.inkscape.org/namespaces/inkscape"
   version="1.1"
   id="svg2"
   width="128"
   height="128"
   viewBox="0 0 128 128"
   sodipodi:docname="sc_imagebutton.svg"
   inkscape:version="0.92.3 (unknown)"
   inkscape:export-filename="/home/rizmut/Dokumen/Rizmut/Github/libreoffice-style-karasa-jaga/build/images_karasa_jaga/cmd/sc_imagebutton.png"
   inkscape:export-xdpi="12"
   inkscape:export-ydpi="12">
  <metadata
     id="metadata8">
    <rdf:RDF>
      <cc:Work
         rdf:about="">
        <dc:format>image/svg+xml</dc:format>
        <dc:type
           rdf:resource="http://purl.org/dc/dcmitype/StillImage" />
        <dc:title></dc:title>
      </cc:Work>
    </rdf:RDF>
  </metadata>
  <defs
     id="defs6">
    <linearGradient
       inkscape:collect="always"
       id="linearGradient1084">
      <stop
         style="stop-color:#b3b3b7;stop-opacity:1;"
         offset="0"
         id="stop1080" />
      <stop
         style="stop-color:#e5e5e5;stop-opacity:0.99607843"
         offset="1"
         id="stop1082" />
    </linearGradient>
    <linearGradient
       inkscape:collect="always"
       id="linearGradient838">
      <stop
         style="stop-color:#ffffff;stop-opacity:1;"
         offset="0"
         id="stop834" />
      <stop
         style="stop-color:#bbbbbb;stop-opacity:1"
         offset="1"
         id="stop836" />
    </linearGradient>
    <linearGradient
       inkscape:collect="always"
       xlink:href="#linearGradient1084"
       id="linearGradient1086"
       x1="72.618614"
       y1="101.35709"
       x2="73.819366"
       y2="47.875233"
       gradientUnits="userSpaceOnUse"
       gradientTransform="matrix(0.93648842,0,0,0.95151202,3.8425019,-2.620516)" />
    <linearGradient
       inkscape:collect="always"
       xlink:href="#linearGradient3369"
       id="linearGradient2336"
       gradientUnits="userSpaceOnUse"
       x1="85.717094"
       y1="92.189766"
       x2="-13.947494"
       y2="1.9635986" />
    <linearGradient
       id="linearGradient3369">
      <stop
         style="stop-color:#ffffff;stop-opacity:1;"
         offset="0"
         id="stop3372" />
      <stop
         id="stop3374"
         offset="0.42597079"
         style="stop-color:#ffffff;stop-opacity:1;" />
      <stop
         id="stop3376"
         offset="0.5892781"
         style="stop-color:#f1f1f1;stop-opacity:1;" />
      <stop
         style="stop-color:#eaeaea;stop-opacity:1;"
         offset="0.80219781"
         id="stop3378" />
      <stop
         style="stop-color:#dfdfdf;stop-opacity:1;"
         offset="1"
         id="stop3384" />
    </linearGradient>
    <linearGradient
       inkscape:collect="always"
       xlink:href="#linearGradient2443"
       id="linearGradient2338"
       gradientUnits="userSpaceOnUse"
       x1="-5.8960056"
       y1="-44.78648"
       x2="55.588886"
       y2="116.05923" />
    <linearGradient
       id="linearGradient2443">
      <stop
         style="stop-color:#b4b4b6;stop-opacity:1;"
         offset="0"
         id="stop2445" />
      <stop
         id="stop2447"
         offset="0.5"
         style="stop-color:#9c9ca1;stop-opacity:1;" />
      <stop
         id="stop2449"
         offset="1"
         style="stop-color:#cdcdd1;stop-opacity:1;" />
    </linearGradient>
    <linearGradient
       inkscape:collect="always"
       xlink:href="#linearGradient3310"
       id="linearGradient2340"
       gradientUnits="userSpaceOnUse"
       gradientTransform="matrix(-0.96618587,0,1.0040524,2.5140531,123.62358,-18.976126)"
       x1="110.45749"
       y1="-4.5765758"
       x2="63.741646"
       y2="41.850632" />
    <linearGradient
       inkscape:collect="always"
       id="linearGradient3310">
      <stop
         style="stop-color:#ffffff;stop-opacity:1;"
         offset="0"
         id="stop3312" />
      <stop
         style="stop-color:#ffffff;stop-opacity:0;"
         offset="1"
         id="stop3314" />
    </linearGradient>
    <linearGradient
       inkscape:collect="always"
       xlink:href="#linearGradient2443"
       id="linearGradient2457-9"
       gradientUnits="userSpaceOnUse"
       gradientTransform="matrix(0.13460875,0,0,0.21715855,-331.2333,-121.84037)"
       x1="399.77466"
       y1="1164.6696"
       x2="399.77466"
       y2="549.06134" />
    <linearGradient
       inkscape:collect="always"
       xlink:href="#linearGradient3369"
       id="linearGradient2459"
       gradientUnits="userSpaceOnUse"
       gradientTransform="matrix(1.0691031,0,0,1.4254709,-324.4226,-27.230125)"
       x1="15.999998"
       y1="106.75"
       x2="98.714287"
       y2="36.035713" />
    <linearGradient
       inkscape:collect="always"
       xlink:href="#linearGradient3310"
       id="linearGradient2461"
       gradientUnits="userSpaceOnUse"
       gradientTransform="matrix(1.3621027,0.55162531,-0.6718293,1.6589168,-340.47719,-54.764149)"
       x1="144.78481"
       y1="-56.087624"
       x2="63.089115"
       y2="62.056267" />
    <linearGradient
       inkscape:collect="always"
       xlink:href="#linearGradient2443"
       id="linearGradient2457"
       gradientUnits="userSpaceOnUse"
       gradientTransform="matrix(0.1300602,0,0,0.2090041,-152.94107,-186.85256)"
       x1="399.77466"
       y1="1164.6696"
       x2="399.77466"
       y2="549.06134" />
    <linearGradient
       inkscape:collect="always"
       xlink:href="#linearGradient3369"
       id="linearGradient2519"
       gradientUnits="userSpaceOnUse"
       gradientTransform="matrix(1.1666667,0,0,1.5555557,-154.66666,-107.55555)"
       x1="9.5714283"
       y1="142.42857"
       x2="112"
       y2="27.999998" />
    <linearGradient
       inkscape:collect="always"
       xlink:href="#linearGradient3310"
       id="linearGradient2515"
       gradientUnits="userSpaceOnUse"
       gradientTransform="matrix(0.87491682,0,-0.90920639,2.2765675,-107.73373,-95.084958)"
       x1="101.47155"
       y1="-3.3719175"
       x2="79.994766"
       y2="39.929062" />
    <linearGradient
       inkscape:collect="always"
       xlink:href="#linearGradient838"
       id="linearGradient896"
       x1="69.8172"
       y1="17.4561"
       x2="69.8172"
       y2="104.7276"
       gradientUnits="userSpaceOnUse"
       gradientTransform="matrix(1.0688537,0,0,1.0312833,-4.3732334,-2.0031453)" />
  </defs>
  <sodipodi:namedview
     pagecolor="#ffffff"
     bordercolor="#666666"
     borderopacity="1"
     objecttolerance="10"
     gridtolerance="10"
     guidetolerance="10"
     inkscape:pageopacity="0"
     inkscape:pageshadow="2"
     inkscape:window-width="1366"
     inkscape:window-height="706"
     id="namedview4"
     showgrid="true"
     inkscape:snap-page="true"
     inkscape:snap-global="true"
     inkscape:zoom="4"
     inkscape:cx="93.343173"
     inkscape:cy="56.406938"
     inkscape:window-x="0"
     inkscape:window-y="0"
     inkscape:window-maximized="1"
     inkscape:current-layer="svg2"
     inkscape:snap-smooth-nodes="true">
    <inkscape:grid
       type="xygrid"
       id="grid862"
       spacingx="8"
       spacingy="8"
       empspacing="1" />
  </sodipodi:namedview>
  <path
     style="opacity:1;fill:#8b8b91;fill-opacity:1;stroke:none;stroke-width:0.92185134;stroke-linecap:round;stroke-linejoin:bevel;stroke-miterlimit:4;stroke-dasharray:none;stroke-dashoffset:0;stroke-opacity:1"
     d="m 17.481631,8.0000077 a 6.0992777,6.2164705 0 0 0 -0.675832,0.040776 h -2.063486 c -3.500339,0 -6.5451769,1.1771654 -9.2696813,3.1689663 C 2.7481276,13.201542 -9.9999973e-8,16.48033 -9.9999973e-8,21.118107 v 85.763783 c 0,4.63774 2.748126499999973,7.91653 5.472631799999973,9.90834 2.7245055,1.99181 5.7693423,3.16895 9.2696813,3.16895 h 2.107474 A 6.0992777,6.2164705 0 0 0 17.481631,120 h 44.412896 0.337914 48.285939 a 6.0992777,6.2164705 0 0 0 0.67581,-0.0407 h 2.0635 c 3.50034,0 6.54517,-1.17714 9.26968,-3.16892 2.7245,-1.99186 5.47263,-5.27064 5.47263,-9.9084 V 21.118092 c 0,-4.637774 -2.74813,-7.916563 -5.47263,-9.908363 -2.72451,-1.9917984 -5.76934,-3.1689634 -9.26968,-3.1689634 h -2.10747 A 6.0992777,6.2164705 0 0 0 110.51838,8 H 62.232441 61.894527 Z"
     id="path8398"
     inkscape:connector-curvature="0" />
  <path
     style="opacity:1;fill:url(#linearGradient1086);fill-opacity:1;stroke:none;stroke-width:0.89019156;stroke-linecap:round;stroke-linejoin:bevel;stroke-miterlimit:4;stroke-dasharray:none;stroke-dashoffset:0;stroke-opacity:1"
     d="m 19.009224,16.000004 v 0.0388 H 16.360719 C 12.766176,16.038804 8,18.989625 8,22.655286 v 82.689394 c 0,3.66569 4.766176,6.61651 8.360719,6.61651 h 2.648505 V 112 h 42.954092 0.327406 46.700058 v -0.0388 h 2.64849 c 3.59454,0 8.36073,-2.95084 8.36073,-6.61653 V 22.655281 c 0,-3.665663 -4.76619,-6.616481 -8.36073,-6.616481 h -2.64849 V 16 H 62.290722 61.963316 Z"
     id="path904"
     inkscape:connector-curvature="0"
     sodipodi:nodetypes="ccssssccccccssssccccc" />
  <g
     id="g8371"
     transform="matrix(1.1481151,0,0,1.0822897,-8.9392288,-4.093622)">
    <g
       transform="matrix(0.36722119,0,0,0.36722119,172.13928,31.920154)"
       id="g4196">
      <rect
         inkscape:export-ydpi="90"
         inkscape:export-xdpi="90"
         inkscape:export-filename="/home/pinheiro/Desktop/mock2.png"
         style="fill:url(#linearGradient2457-9);fill-opacity:1;fill-rule:nonzero;stroke:none;stroke-width:2.0780313;stroke-linecap:round;stroke-linejoin:round;stroke-miterlimit:4;stroke-dasharray:none;stroke-dashoffset:4;stroke-opacity:1"
         id="rect2324-0"
         width="132.994"
         height="133.51352"
         x="-322.49701"
         y="-2.5067599"
         inkscape:r_cx="true"
         inkscape:r_cy="true"
         ry="66.75676"
         rx="66.75676" />
      <rect
         ry="51.316948"
         rx="51.316948"
         y="12.683053"
         x="-307.31696"
         height="102.6339"
         width="102.6339"
         id="rect2326-6"
         style="fill:url(#linearGradient2459);fill-opacity:1;fill-rule:evenodd;stroke:none;stroke-width:7.33099222;stroke-linecap:round;stroke-linejoin:round;stroke-miterlimit:4;stroke-dasharray:none;stroke-opacity:1" />
      <path
         inkscape:connector-curvature="0"
         style="fill:url(#linearGradient2461);fill-opacity:1;fill-rule:evenodd;stroke:none;stroke-width:0.91637403px;stroke-linecap:butt;stroke-linejoin:miter;stroke-opacity:1"
         d="m -226.59012,22.247707 c -23.17711,2.416084 -52.8327,22.059917 -69.64443,56.557461 l 49.45556,26.002112 c -0.29587,-24.197691 15.09613,-58.070534 32.30219,-71.018987 -3.07661,-4.230421 -6.76321,-7.972896 -10.96785,-11.082399 z"
         id="path3318-26"
         sodipodi:nodetypes="cccccc" />
    </g>
    <g
       transform="matrix(0.36722119,0,0,0.36722119,79.430646,67.053035)"
       id="g4135">
      <rect
         inkscape:export-ydpi="90"
         inkscape:export-xdpi="90"
         inkscape:export-filename="/home/pinheiro/Desktop/mock2.png"
         style="fill:url(#linearGradient2457);fill-opacity:1;fill-rule:nonzero;stroke:none;stroke-width:2;stroke-linecap:round;stroke-linejoin:round;stroke-miterlimit:4;stroke-dasharray:none;stroke-dashoffset:4;stroke-opacity:1"
         id="rect2324"
         width="110.0517"
         height="121.10687"
         x="-138.17508"
         y="-71.651588"
         inkscape:r_cx="true"
         inkscape:r_cy="true"
         ry="2.7692308"
         rx="2.8571429" />
      <rect
         ry="1.7500014"
         rx="1.7500014"
         y="-51.522751"
         x="-119.20029"
         height="80.515358"
         width="75.899132"
         id="rect2326"
         style="fill:url(#linearGradient2519);fill-opacity:1;fill-rule:evenodd;stroke:none;stroke-width:8;stroke-linecap:round;stroke-linejoin:round;stroke-miterlimit:4;stroke-dasharray:none;stroke-opacity:1" />
      <path
         inkscape:connector-curvature="0"
         id="path3318-2"
         d="m -66.160701,-56.805155 c -17.919303,21.463665 -40.168729,42.824316 -56.878269,70.995435 h 38.687734 c 12.105134,-26.970449 26.715244,-49.479946 41.047738,-70.995435 z"
         style="fill:url(#linearGradient2515);fill-opacity:1;fill-rule:evenodd;stroke:none;stroke-width:0.87491679px;stroke-linecap:butt;stroke-linejoin:miter;stroke-opacity:1"
         sodipodi:nodetypes="ccccc" />
    </g>
    <g
       transform="matrix(0,0.36722119,-0.36722119,0,99.476743,51.963698)"
       id="g2332">
      <path
         sodipodi:type="star"
         style="opacity:0.89138579;fill:url(#linearGradient2336);fill-opacity:1;stroke:url(#linearGradient2338);stroke-width:13.22800541;stroke-linecap:round;stroke-linejoin:round;stroke-miterlimit:4;stroke-dasharray:none;stroke-dashoffset:1.08780003;stroke-opacity:1"
         id="path2315"
         sodipodi:sides="3"
         sodipodi:cx="16.999998"
         sodipodi:cy="35.500004"
         sodipodi:r1="67.910385"
         sodipodi:r2="30.493454"
         sodipodi:arg1="0.68359684"
         sodipodi:arg2="1.7307944"
         inkscape:flatsided="true"
         inkscape:rounded="0"
         inkscape:randomized="0"
         d="M 69.651329,78.391236 -46.470564,59.651778 27.819229,-31.543002 Z"
         transform="matrix(0.92177293,0.35196336,-0.35235698,0.92060315,77.614605,25.355074)" />
      <path
         id="path3318"
         d="M 73.860519,34.20818 C 93.64912,57.910879 92.039334,43.602302 110.49197,74.712157 L 79.382783,97.599246 C 66.014876,67.81531 76.308924,65.33228 60.481308,41.57235 Z"
         style="fill:url(#linearGradient2340);fill-opacity:1;fill-rule:evenodd;stroke:none;stroke-width:0.96618587px;stroke-linecap:butt;stroke-linejoin:miter;stroke-opacity:1"
         sodipodi:nodetypes="ccccc"
         inkscape:connector-curvature="0" />
    </g>
  </g>
  <path
     style="opacity:1;fill:url(#linearGradient896);fill-opacity:1;stroke:none;stroke-width:0.89019942;stroke-linecap:round;stroke-linejoin:bevel;stroke-miterlimit:4;stroke-dasharray:none;stroke-dashoffset:0;stroke-opacity:1"
     d="m 19.01003,15.999997 v 0.03828 H 16.360858 C 12.766312,16.038274 8,18.989277 8,22.655002 v 82.689988 c 0,3.66573 4.766312,6.61671 8.360858,6.61671 H 19.01003 V 112 h 42.954558 0.327754 46.699718 v -0.0383 h 2.64708 c 3.59453,0 8.36086,-2.95097 8.36086,-6.61671 V 22.655 c 0,-3.665724 -4.76633,-6.616726 -8.36086,-6.616726 h -2.64708 V 16 H 62.292342 61.964588 Z M 23.755667,24 h 38.184383 0.290175 41.514105 v 0.03424 h 2.35481 c 3.19537,0 5.80844,1.081751 5.81247,4.289256 L 112,98.7091 c 0.004,3.20753 -2.3671,5.2909 -5.56247,5.2909 h -2.35481 v 0.0343 H 62.568613 62.278438 24.094055 V 104 H 21.739236 C 18.543857,104 16.004028,101.41663 16,98.2091 L 15.91161,27.8235 c -0.004,-3.207504 2.313495,-4.142974 5.489236,-3.789256 h 2.354819 z"
     id="path887"
     inkscape:connector-curvature="0"
     sodipodi:nodetypes="ccssssccccccssssccccccccccssssccccccsssscc" />
</svg>
